database-outline.svg

<svg fill="currentColor" viewBox="0 0 24 24"><path d="M12 3C7.58 3 4 4.79 4 7v10c0 2.21 3.59 4 8 4s8-1.79 8-4V7c0-2.21-3.58-4-8-4m6 14c0 .5-2.13 2-6 2s-6-1.5-6-2v-2.23c1.61.78 3.72 1.23 6 1.23s4.39-.45 6-1.23zm0-4.55c-1.3.95-3.58 1.55-6 1.55s-4.7-.6-6-1.55V9.64c1.47.83 3.61 1.36 6 1.36s4.53-.53 6-1.36zM12 9C8.13 9 6 7.5 6 7s2.13-2 6-2 6 1.5 6 2-2.13 2-6 2"/></svg>

<svg  viewBox="0 0 24 24" fill="currentColor"><path  d="M12 3C7.58 3 4 4.79 4 7V17C4 19.21 7.59 21 12 21S20 19.21 20 17V7C20 4.79 16.42 3 12 3M18 17C18 17.5 15.87 19 12 19S6 17.5 6 17V14.77C7.61 15.55 9.72 16 12 16S16.39 15.55 18 14.77V17M18 12.45C16.7 13.4 14.42 14 12 14C9.58 14 7.3 13.4 6 12.45V9.64C7.47 10.47 9.61 11 12 11C14.39 11 16.53 10.47 18 9.64V12.45M12 9C8.13 9 6 7.5 6 7S8.13 5 12 5C15.87 5 18 6.5 18 7S15.87 9 12 9Z"/></svg>
